X:300
T: DIE EULE AUF DEM ZAUNE SASS
N: E0171
O: Europa, Mitteleuropa, Deutschland, Neisse, Walldorf
R: erzaehlendes Volks - Lied, Sage, Tier - Maerchen
M: 3/4
L: 1/8
K: F
C | CCF2F2 | FGA2z
G | FFF2G2 | A2G2z
F | FAc2cB | AcG2z
F | AcA2F2 | G2F2z

@@@ Tune index: 3950
